COLOR/action 16/16/align-vertical-top-to-anchor.svg

<svg viewBox="0 0 24 24" xmlns="http://www.w3.org/2000/svg" xmlns:xlink="http://www.w3.org/1999/xlink"><g transform="matrix(1 0 0 -1 0 24)"><path d="m4 4v1 6h6v-1-6h-1zm10 1v6h5 1v-1-4-1h-1-4z" fill="#c43ac4"/><path d="m14 16v1 3h6v-1-3h-1z" fill="#1a7fd4"/><path d="m4 13v1h16v-1z" fill="#e95420"/></g><g id="a" transform="matrix(1 0 0 -1 0 24)"><path d="m4 4v1 6h6v-1-6h-1zm10 1v6h5 1v-1-4-1h-1-4z" fill="#c43ac4"/><path d="m14 16v1 3h6v-1-3h-1z" fill="#1a7fd4"/><path d="m4 13v1h16v-1z" fill="#e95420"/></g><use xlink:href="#a"/><use id="b" xlink:href="#a"/><use xlink:href="#b"/><g transform="matrix(1 0 0 -1 0 24)"><path d="m4 4v1 6h6v-1-6h-1zm10 1v6h5 1v-1-4-1h-1-4z" fill="#c43ac4"/><path d="m14 16v1 3h6v-1-3h-1z" fill="#1a7fd4"/><path d="m4 13v1h16v-1z" fill="#e95420"/></g><g><path d="m14 7.5v.5h5 1v-.5h-1zm-10 3v.5h16v-.5zm10 8v.5h1 4 1v-.5h-1-4zm-10 1v.5h5 1v-.5h-1z" opacity=".2"/><path d="m14 4v.5h6v-.5zm-10 6v.5h16v-.5zm0 3v.5h6v-.5zm10 0v.5h5 1v-.5h-1z" fill="#fff" opacity=".3"/></g></svg>

<?xml version="1.0" encoding="UTF-8" standalone="no"?>
<svg
   xmlns:dc="http://purl.org/dc/elements/1.1/"
   xmlns:cc="http://creativecommons.org/ns#"
   xmlns:rdf="http://www.w3.org/1999/02/22-rdf-syntax-ns#"
   xmlns:svg="http://www.w3.org/2000/svg"
   xmlns="http://www.w3.org/2000/svg"
   xmlns:xlink="http://www.w3.org/1999/xlink"
   xmlns:sodipodi="http://sodipodi.sourceforge.net/DTD/sodipodi-0.dtd"
   xmlns:inkscape="http://www.inkscape.org/namespaces/inkscape"
   viewBox="0 0 24 24"
   version="1.1"
   id="svg10"
   sodipodi:docname="align-vertical-top-to-anchor.svg"
   inkscape:version="0.92.4 (5da689c313, 2019-01-14)">
  <metadata
     id="metadata16">
    <rdf:RDF>
      <cc:Work
         rdf:about="">
        <dc:format>image/svg+xml</dc:format>
        <dc:type
           rdf:resource="http://purl.org/dc/dcmitype/StillImage" />
      </cc:Work>
    </rdf:RDF>
  </metadata>
  <defs
     id="defs14" />
  <sodipodi:namedview
     pagecolor="#ffffff"
     bordercolor="#666666"
     borderopacity="1"
     objecttolerance="10"
     gridtolerance="10"
     guidetolerance="10"
     inkscape:pageopacity="0"
     inkscape:pageshadow="2"
     inkscape:window-width="1920"
     inkscape:window-height="1016"
     id="namedview12"
     showgrid="false"
     inkscape:zoom="52.4375"
     inkscape:cx="12"
     inkscape:cy="10.474374"
     inkscape:window-x="0"
     inkscape:window-y="27"
     inkscape:window-maximized="1"
     inkscape:current-layer="g853" />
  <g
     transform="matrix(1 0 0 -1 0 24)"
     id="g8">
    <path
       d="m4 4v1 6h6v-1-6h-1zm10 1v6h5 1v-1-4-1h-1-4z"
       fill="#c43ac4"
       id="path2" />
    <path
       d="m14 16v1 3h6v-1-3h-1z"
       fill="#1a7fd4"
       id="path4" />
    <path
       d="m4 13v1h16v-1z"
       fill="#e95420"
       id="path6" />
  </g>
  <g
     id="g829"
     transform="matrix(1 0 0 -1 0 24)">
    <path
       id="path823"
       fill="#c43ac4"
       d="m4 4v1 6h6v-1-6h-1zm10 1v6h5 1v-1-4-1h-1-4z" />
    <path
       id="path825"
       fill="#1a7fd4"
       d="m14 16v1 3h6v-1-3h-1z" />
    <path
       id="path827"
       fill="#e95420"
       d="m4 13v1h16v-1z" />
  </g>
  <use
     x="0"
     y="0"
     xlink:href="#g829"
     id="use831" />
  <use
     id="use833"
     xlink:href="#g829"
     y="0"
     x="0" />
  <use
     x="0"
     y="0"
     xlink:href="#use833"
     id="use835" />
  <g
     transform="matrix(1,0,0,-1,0,24)"
     id="use837">
    <path
       d="m 4,4 v 1 6 h 6 V 10 4 H 9 Z m 10,1 v 6 h 5 1 V 10 6 5 h -1 -4 z"
       id="path839"
       inkscape:connector-curvature="0"
       style="fill:#c43ac4" />
    <path
       d="m 14,16 v 1 3 h 6 v -1 -3 h -1 z"
       id="path841"
       inkscape:connector-curvature="0"
       style="fill:#1a7fd4" />
    <path
       d="m 4,13 v 1 h 16 v -1 z"
       id="path843"
       inkscape:connector-curvature="0"
       style="fill:#e95420" />
  </g>
  <g
     id="g853"
     transform="matrix(1,0,0,-1,0,24)">
    <path
       style="fill:#000000;fill-opacity:1;opacity:0.2"
       d="M 14 7.5 L 14 8 L 19 8 L 20 8 L 20 7.5 L 19 7.5 L 14 7.5 z M 4 10.5 L 4 11 L 20 11 L 20 10.5 L 4 10.5 z M 14 18.5 L 14 19 L 15 19 L 19 19 L 20 19 L 20 18.5 L 19 18.5 L 15 18.5 L 14 18.5 z M 4 19.5 L 4 20 L 9 20 L 10 20 L 10 19.5 L 9 19.5 L 4 19.5 z "
       transform="matrix(1,0,0,-1,0,24)"
       id="path847" />
    <path
       style="fill:#ffffff;fill-opacity:1;opacity:0.3"
       d="M 14 4 L 14 4.5 L 20 4.5 L 20 4 L 14 4 z M 4 10 L 4 10.5 L 20 10.5 L 20 10 L 4 10 z M 4 13 L 4 13.5 L 10 13.5 L 10 13 L 4 13 z M 14 13 L 14 13.5 L 19 13.5 L 20 13.5 L 20 13 L 19 13 L 14 13 z "
       transform="matrix(1,0,0,-1,0,24)"
       id="path858" />
  </g>
</svg>
